build/Karasa-Jaga/scalable/actions/go-home-symbolic.svg

<svg height="16" width="16" xmlns="http://www.w3.org/2000/svg"><path d="m8 1.1875-7.75 6.59375 1.5 1.28125 1.25-1.0625 5-4 5 4 1.25 1.0625 1.5-1.28125zm3 .84375v.65625l2 1.6875v-2.34375zm-3 .1347656 6.601562 5.6171875-.353515.3007813-.765625-.6523438a.74510962.74510962 0 0 0 -.017578-.0136718l-5.0000002-4a.74510962.74510962 0 0 0 -.9296876 0l-5 4a.74510962.74510962 0 0 0 -.0175781.0136718l-.765625.6523438-.3535156-.3007813zm0 2.8339844-5 4v5.8125h3.5v-3.8125h3v3.8125h3.5v-5.8125zm0 1.1875 4.072266 3.2578125v4.4394535h-1.644532v-2.884766a.92694801.92694801 0 0 0 -.927734-.927734h-3a.92694801.92694801 0 0 0 -.9277344.927734v2.884766h-1.6445312v-4.4394535z" fill="#bebebe"/></svg>

<?xml version="1.0" encoding="UTF-8" standalone="no"?>
<!-- Created with Inkscape (http://www.inkscape.org/) -->

<svg
   xmlns:dc="http://purl.org/dc/elements/1.1/"
   xmlns:cc="http://creativecommons.org/ns#"
   xmlns:rdf="http://www.w3.org/1999/02/22-rdf-syntax-ns#"
   xmlns:svg="http://www.w3.org/2000/svg"
   xmlns="http://www.w3.org/2000/svg"
   xmlns:sodipodi="http://sodipodi.sourceforge.net/DTD/sodipodi-0.dtd"
   xmlns:inkscape="http://www.inkscape.org/namespaces/inkscape"
   width="16"
   height="16"
   id="svg2"
   sodipodi:version="0.32"
   inkscape:version="0.92.2 (unknown)"
   version="1.0"
   sodipodi:docname="go-home-symbolic.svg"
   inkscape:output_extension="org.inkscape.output.svg.inkscape"
   inkscape:export-filename="/home/matt/.icons/Sirocco/scalable/mimetypes/text-plain.png"
   inkscape:export-xdpi="90"
   inkscape:export-ydpi="90"
   sodipodi:modified="true"
   style="display:inline">
  <sodipodi:namedview
     id="base"
     pagecolor="#ffffff"
     bordercolor="#666666"
     borderopacity="1.0"
     inkscape:pageopacity="0.0"
     inkscape:pageshadow="2"
     inkscape:zoom="23.252798"
     inkscape:cx="13.407914"
     inkscape:cy="6.7818271"
     inkscape:document-units="px"
     inkscape:current-layer="layer1"
     width="128px"
     height="128px"
     inkscape:showpageshadow="false"
     inkscape:window-width="1366"
     inkscape:window-height="706"
     inkscape:window-x="0"
     inkscape:window-y="0"
     showguides="true"
     inkscape:guide-bbox="true"
     showgrid="false"
     inkscape:window-maximized="1">
    <sodipodi:guide
       id="guide2226"
       position="32.637397,117.99844"
       orientation="horizontal"
       inkscape:locked="false" />
    <sodipodi:guide
       id="guide2230"
       position="110,57.402344"
       orientation="vertical"
       inkscape:locked="false" />
    <sodipodi:guide
       id="guide2232"
       position="33.760911"
       orientation="horizontal"
       inkscape:locked="false" />
    <sodipodi:guide
       id="guide2231"
       position="46.774696"
       orientation="horizontal"
       inkscape:locked="false" />
    <inkscape:grid
       enabled="true"
       visible="true"
       id="grid3231"
       type="xygrid" />
    <sodipodi:guide
       orientation="1,0"
       position="100,67.625"
       id="guide2713"
       inkscape:locked="false" />
  </sodipodi:namedview>
  <defs
     id="defs4" />
  <metadata
     id="metadata7">
    <rdf:RDF>
      <cc:Work
         rdf:about="">
        <dc:format>image/svg+xml</dc:format>
        <dc:type
           rdf:resource="http://purl.org/dc/dcmitype/StillImage" />
        <dc:title></dc:title>
      </cc:Work>
    </rdf:RDF>
  </metadata>
  <g
     style="display:inline"
     inkscape:label="Calque 1"
     id="layer1"
     inkscape:groupmode="layer">
    <path
       style="fill:#bebebe;fill-opacity:1;stroke:none"
       d="M 8 1.1875 L 0.25 7.78125 L 1.75 9.0625 L 3 8 L 8 4 L 13 8 L 14.25 9.0625 L 15.75 7.78125 L 8 1.1875 z M 11 2.03125 L 11 2.6875 L 13 4.375 L 13 2.03125 L 11 2.03125 z M 8 2.1660156 L 14.601562 7.7832031 L 14.248047 8.0839844 L 13.482422 7.4316406 A 0.74510962 0.74510962 0 0 0 13.464844 7.4179688 L 8.4648438 3.4179688 A 0.74510962 0.74510962 0 0 0 7.5351562 3.4179688 L 2.5351562 7.4179688 A 0.74510962 0.74510962 0 0 0 2.5175781 7.4316406 L 1.7519531 8.0839844 L 1.3984375 7.7832031 L 8 2.1660156 z M 8 5 L 3 9 L 3 14.8125 L 6.5 14.8125 L 6.5 11 L 9.5 11 L 9.5 14.8125 L 13 14.8125 L 13 9 L 8 5 z M 8 6.1875 L 12.072266 9.4453125 L 12.072266 13.884766 L 10.427734 13.884766 L 10.427734 11 A 0.92694801 0.92694801 0 0 0 9.5 10.072266 L 6.5 10.072266 A 0.92694801 0.92694801 0 0 0 5.5722656 11 L 5.5722656 13.884766 L 3.9277344 13.884766 L 3.9277344 9.4453125 L 8 6.1875 z "
       id="path2998" />
  </g>
</svg>
